X: 2
T:Det var en l\ordag aften
M:2/4
L:1/8
Q:160
C:anon.
O:Denmark
Z:Transcribed by Frank Nordberg - http://musica-viva.eosnet.com/
K:F
C|"F"FF CC|"F"A2 FA|"C7"GE CE|"F"F2 z C|
w:Det var en l\or- dag af- ten jeg sad og ven- ted dig. Det
"F"FF CC|"Dm"A2 FA|"Gm"GE "C7"CE|"F"F2 z A|
w:var en l\or- dag af- ten jeg sad og ven- ted dig. Du
"F"AA cA|"C"GG cG|"Dm"FF "G7"dd|"C7"c2 z B|
